assets/home-tab/Asset/notification.svg

<svg width="24" height="24" viewBox="0 0 24 24" fill="none" xmlns="http://www.w3.org/2000/svg">
<path fill-rule="evenodd" clip-rule="evenodd" d="M9.87596 7.65894C11.608 5.24954 14.8839 4.54457 17.4537 6.02823C20.0234 7.5119 21.0509 10.7014 19.8303 13.4061L18.9285 15.4042C18.6624 15.994 18.6182 16.6778 18.574 17.3606C18.5245 18.1269 18.475 18.8918 18.1118 19.5208C17.5741 20.4522 16.3833 20.7713 15.4519 20.2336L6.14971 14.8629C5.21838 14.3252 4.89928 13.1343 5.43698 12.203C5.80059 11.5732 6.43948 11.1477 7.07952 10.7214C7.64985 10.3415 8.22109 9.96103 8.59933 9.43486L9.87596 7.65894ZM7.54792 17.3877C7.60432 16.9593 8.10548 16.8238 8.45548 17.0772C9.75827 18.0203 10.9139 18.6916 12.3824 19.3483C12.775 19.5239 12.9077 20.0234 12.5665 20.2852C12.2398 20.5359 11.8668 20.7198 11.469 20.8264C11.0712 20.933 10.6563 20.9602 10.2479 20.9064C9.83962 20.8527 9.44587 20.719 9.0892 20.5131C8.73252 20.3072 8.4199 20.033 8.16918 19.7063C7.91846 19.3795 7.73455 19.0066 7.62795 18.6088C7.52136 18.2109 7.49416 17.796 7.54792 17.3877Z" fill="#2F4B6A"/>
</svg>

<svg xmlns="http://www.w3.org/2000/svg" width="24" height="24" fill="none" viewBox="0 0 24 24"><path fill="#2f4b6a" fill-rule="evenodd" d="M9.876 7.659a5.776 5.776 0 0 1 9.954 5.747l-.901 1.998c-.267.59-.31 1.274-.355 1.957-.05.766-.099 1.53-.462 2.16a1.947 1.947 0 0 1-2.66.713L6.15 14.863a1.947 1.947 0 0 1-.713-2.66c.364-.63 1.002-1.055 1.643-1.482.57-.38 1.141-.76 1.52-1.286zm-2.328 9.729c.056-.429.557-.564.907-.31a20.8 20.8 0 0 0 3.927 2.27c.393.176.526.675.184.937a3.136 3.136 0 0 1-5.018-2.897" clip-rule="evenodd"/></svg>
